papirus/22x22/apps/chrome-bikioccmkafdpakkkcpdbppfkghcmihk-Default.svg

<svg height="22" viewBox="0 0 22 22" width="22" xmlns="http://www.w3.org/2000/svg"><g transform="translate(-1 -1)"><path d="m11.997071 2a10 9.5 0 0 0 -.853517.041015c-.2057.016295-.407463.042576-.609375.070312a10 9.5 0 0 0 -.320312.045899c-.287716.04848-.570131.1097342-.8486325.1806646a10 9.5 0 0 0 -.0546875.0136719c-4.221243 1.0992453-7.310547 4.711162-7.310547 8.9980475.0000505.03108.00255.06173.00293.09277a10 9.5 0 0 0 -.00293.05762 10 9.5 0 0 0  3.901367 7.513672v2.986328l2.750977-1.560547a10 9.5 0 0 0 3.347656.560547 10 9.5 0 0 0  9.974609-9.014648c.008-.110567.01377-.221431.01758-.333008a10 9.5 0 0 0  .007811-.152344 10 9.5 0 0 0 -.002-.06152c.000345-.029738.002-.05907.002-.08887 0-4.8420645-3.938457-8.8330523-9.001953-9.3017585a10 9.5 0 0 0 -.832031-.040039c-.056166-.0008669-.110602-.0078125-.166992-.0078125-.00065 0-.0013-.0000001-.002 0z" fill="#2090ea"/><path d="m11.997071 2a10 9.5 0 0 0 -.853517.041015c-.2057.016295-.407463.042576-.609375.070312a10 9.5 0 0 0 -.320312.045899c-.287716.04848-.570131.1097342-.8486325.1806646a10 9.5 0 0 0 -.0546875.0136719c-4.221243 1.0992453-7.310547 4.711162-7.310547 8.9980475.0000505.03108.00255.06173.00293.09277a10 9.5 0 0 0 -.00293.05762 10 9.5 0 0 0  .008789.15918c.0905851-4.2024865 3.1436415-7.7248108 7.301758-8.8076175a10 9.5 0 0 1  .054687-.013672c.278502-.0709303.560917-.1321845.848633-.180664a10 9.5 0 0 1  .320313-.0458985c.201911-.027737.403674-.054018.609375-.070312a10 9.5 0 0 1  .853516-.041016h.002c.05639 0 .110826.00695.166992.00781a10 9.5 0 0 1  .832031.040039c5.001514.4629688 8.89834 4.3641595 8.993164 9.125977.000262-.0072.00075-.01429.001-.02149a10 9.5 0 0 0  .007742-.152336 10 9.5 0 0 0 -.002-.06152c.000345-.029738.002-.05907.002-.08887 0-4.8420645-3.938457-8.8330523-9.001953-9.3017585a10 9.5 0 0 0 -.832031-.040039c-.056166-.0008669-.110602-.0078125-.166992-.0078125h-.002z" fill="#fff" opacity=".2"/><path d="m2.008789 11.15918c-.0013752.0638-.008789.126321-.008789.19043.0000505.03108.00255.06173.00293.09277a10 9.5 0 0 0 -.00293.05762 10 9.5 0 0 0  3.901367 7.513672v-.5a10 9.5 0 0 1 -3.892578-7.354492zm19.982422.01465c-.0038.104297-.0092.208087-.0166.311523a10 9.5 0 0 1 -9.974611 9.014647 10 9.5 0 0 1 -3.347656-.560547l-2.750977 1.560547v.5l2.750977-1.560547a10 9.5 0 0 0 3.347656.560547 10 9.5 0 0 0  9.974609-9.014648c.008-.110567.01377-.221432.01758-.333008a10 9.5 0 0 0  .007811-.152344 10 9.5 0 0 0 -.002-.06152c.000345-.029738.002-.05907.002-.08887 0-.05927-.0076-.116771-.0088-.175782z" opacity=".3"/><ellipse cx="12" cy="11.5" fill="none" opacity=".2" rx="7" ry="6" stroke="#000" stroke-dasharray="4 2" stroke-width="2"/><ellipse cx="12" cy="11" fill="none" rx="7" ry="6" stroke="#fff" stroke-dasharray="4 2" stroke-width="2"/></g></svg>

<?xml version="1.0" encoding="UTF-8" standalone="no"?>
<svg
   xmlns:dc="http://purl.org/dc/elements/1.1/"
   xmlns:cc="http://creativecommons.org/ns#"
   xmlns:rdf="http://www.w3.org/1999/02/22-rdf-syntax-ns#"
   xmlns:svg="http://www.w3.org/2000/svg"
   xmlns="http://www.w3.org/2000/svg"
   id="svg2"
   viewBox="0 0 22 22"
   version="1.1"
   width="22"
   height="22">
  <metadata
     id="metadata51">
    <rdf:RDF>
      <cc:Work
         rdf:about="">
        <dc:format>image/svg+xml</dc:format>
        <dc:type
           rdf:resource="http://purl.org/dc/dcmitype/StillImage" />
        <dc:title></dc:title>
      </cc:Work>
    </rdf:RDF>
  </metadata>
  <defs
     id="defs4" />
  <g
     transform="translate(-1,-1)"
     id="g4147">
    <path
       style="fill:#2090ea;fill-opacity:1"
       d="m 11.997071,2 a 10,9.5 0 0 0 -0.853517,0.041015 c -0.2057,0.016295 -0.407463,0.042576 -0.609375,0.070312 A 10,9.5 0 0 0 10.213867,2.157226 C 9.926151,2.205706 9.643736,2.2669602 9.3652345,2.3378906 A 10,9.5 0 0 0 9.310547,2.3515625 C 5.089304,3.4508078 2,7.0627245 2,11.34961 c 5.05e-5,0.03108 0.00255,0.06173 0.00293,0.09277 A 10,9.5 0 0 0 2,11.5 10,9.5 0 0 0 5.901367,19.013672 l 0,2.986328 2.750977,-1.560547 A 10,9.5 0 0 0 12,21 10,9.5 0 0 0 21.974609,11.985352 c 0.008,-0.110567 0.01377,-0.221431 0.01758,-0.333008 A 10,9.5 0 0 0 22,11.5 10,9.5 0 0 0 21.998,11.43848 C 21.998345,11.408742 22,11.37941 22,11.34961 22,6.5075455 18.061543,2.5165577 12.998047,2.0478515 A 10,9.5 0 0 0 12.166016,2.0078125 C 12.10985,2.0069456 12.055414,2 11.999024,2 c -6.5e-4,0 -0.0013,-1e-7 -0.002,0 z"
       id="path37" />
    <path
       style="opacity:0.2;fill:#ffffff;fill-opacity:1"
       d="m 11.997071,2 a 10,9.5 0 0 0 -0.853517,0.041015 c -0.2057,0.016295 -0.407463,0.042576 -0.609375,0.070312 A 10,9.5 0 0 0 10.213867,2.157226 C 9.926151,2.205706 9.643736,2.2669602 9.3652345,2.3378906 A 10,9.5 0 0 0 9.310547,2.3515625 C 5.089304,3.4508078 2,7.0627245 2,11.34961 c 5.05e-5,0.03108 0.00255,0.06173 0.00293,0.09277 A 10,9.5 0 0 0 2,11.5 10,9.5 0 0 0 2.008789,11.65918 C 2.0993741,7.4566935 5.1524305,3.9343692 9.310547,2.8515625 A 10,9.5 0 0 1 9.365234,2.8378905 C 9.643736,2.7669602 9.926151,2.705706 10.213867,2.6572265 A 10,9.5 0 0 1 10.53418,2.611328 C 10.736091,2.583591 10.937854,2.55731 11.143555,2.541016 A 10,9.5 0 0 1 11.997071,2.5 l 0.002,0 c 0.05639,0 0.110826,0.00695 0.166992,0.00781 a 10,9.5 0 0 1 0.832031,0.040039 c 5.001514,0.4629688 8.89834,4.3641595 8.993164,9.125977 2.62e-4,-0.0072 7.5e-4,-0.01429 0.001,-0.02149 A 10,9.5 0 0 0 22,11.5 10,9.5 0 0 0 21.998,11.43848 C 21.998345,11.408742 22,11.37941 22,11.34961 22,6.5075455 18.061543,2.5165577 12.998047,2.0478515 A 10,9.5 0 0 0 12.166016,2.0078125 C 12.10985,2.0069456 12.055414,2 11.999024,2 l -0.002,0 z"
       id="path4199" />
    <path
       style="opacity:0.3;fill:#000000;fill-opacity:1"
       d="M 2.008789,11.15918 C 2.0074138,11.22298 2,11.285501 2,11.34961 c 5.05e-5,0.03108 0.00255,0.06173 0.00293,0.09277 A 10,9.5 0 0 0 2,11.5 10,9.5 0 0 0 5.901367,19.013672 l 0,-0.5 A 10,9.5 0 0 1 2.008789,11.15918 Z m 19.982422,0.01465 c -0.0038,0.104297 -0.0092,0.208087 -0.0166,0.311523 A 10,9.5 0 0 1 12,20.5 10,9.5 0 0 1 8.652344,19.939453 L 5.901367,21.5 l 0,0.5 2.750977,-1.560547 A 10,9.5 0 0 0 12,21 10,9.5 0 0 0 21.974609,11.985352 c 0.008,-0.110567 0.01377,-0.221432 0.01758,-0.333008 A 10,9.5 0 0 0 22,11.5 10,9.5 0 0 0 21.998,11.43848 C 21.998345,11.408742 22,11.37941 22,11.34961 22,11.29034 21.9924,11.232839 21.9912,11.173828 Z"
       id="path4204" />
    <ellipse
       ry="6"
       rx="7"
       cy="11.5"
       cx="12"
       id="ellipse4145"
       style="opacity:0.2;fill:none;fill-opacity:1;stroke:#000000;stroke-width:2;stroke-linecap:butt;stroke-linejoin:miter;stroke-miterlimit:4;stroke-dasharray:4, 2;stroke-dashoffset:0;stroke-opacity:1" />
    <ellipse
       style="opacity:1;fill:none;fill-opacity:1;stroke:#ffffff;stroke-width:2;stroke-linecap:butt;stroke-linejoin:miter;stroke-miterlimit:4;stroke-dasharray:4, 2;stroke-dashoffset:0;stroke-opacity:1"
       id="path4143"
       cx="12"
       cy="11"
       rx="7"
       ry="6" />
  </g>
</svg>
